X: 1
T: the Middle of Night
C: Peter Barnes 1998
N: Suggested tune for The Prince of Westborough
R: waltz
Z: 2014 John Chambers <jc:trillian.mit.edu>
S: http://www.burlingtoncountrydancers.org/pages/devised/pwmusic.pdf
M: 3/4
L: 1/8
K: Em
E2 F2 |\
"Em"G4 FG | "D"A4 GA | "G"B6 | "C"g4 e2 |\
"G"d4 B2 | "D"A6 | "Em"B4 G2 | "Bm"G2 F4 |
"Em"E2 G2 B2 | "D"F2 AB c2 | "G"B4 g2 | "Bm"f6 |\
"Am"A4 e2 | "Bm"d3 c A2 | "Em"A2 G4- | G4 |]
ef |\
"C"g4 e2 | e4 de | "G"B4 e2 | "D"d6 |\
"Am"A4 ce | "D"d4 B2 | "Am"A2 B2 c2 | "Bm"F6 |
"Em"F2 E2 G2 | "D7/f#"F3 A c2 | "G"B2 g4 | "Am(C)"a6 |\
"C"g2 f3 d | "Bm"B3 A F2 | "Em"F2 E4- | E2 |]
